X:27
T: (Saratoga)
M:4/4
K:D
de |: fdfa gfed | fdfd (3BcB A e | fdfa gfed | cABc d2 de | \
fdfa gfed | fdfd (3BcB A e | fdfa gfed | cABc d2 z2 :: \
a2 fa b2 ag | fddd e2 df | a2 fa b2 ag | fABc d2 df | \
a2 fa b2 ag | fddd e2 df | a2 fa b2 ag | fABc d2 df :| \
